X: 16855
T: Harvey The Westie
R: reel
M: 4/4
K: Dmajor
dD (3DDD dDcD|BD (3DDD BDAD|EFAE FAD2|EFAB AFED|
dD (3DDD dDcD|BDDB DDAD|EFAE FAD2|1 ABAF D2c2:|2 ABAF D4]|
|:B,F (3FFF EFAB|(3Bcd cB AFED|B,F (3FFF EFAB-|BA2F- FA E2|
B,F (3FFF EFAB|(3Bcd cB AFED|(3EFG AG FAEA|1 (3EFG AG FAEA:|2 (3EFG AB cABc||

